brandFactory_export/1.Light/Servicio tecnico Internet_1Light.svg

<?xml version="1.0" encoding="UTF-8"?>
<svg width="24px" height="24px" viewBox="0 0 24 24" version="1.1" xmlns="http://www.w3.org/2000/svg" xmlns:xlink="http://www.w3.org/1999/xlink">
    <title>1.Light/Servicio tecnico Internet_1Light</title>
    <g id="Symbols" stroke="none" stroke-width="1" fill="none" fill-rule="evenodd">
        <g id="1.Light/Servicio-tecnico-Internet_1Light" fill="#5CB615" fill-rule="nonzero">
            <path d="M23.2773109,19.7983193 C23.4621849,19.7983193 23.6134454,19.9495798 23.6134454,20.1344538 C23.6134454,20.3193277 23.4621849,20.4705882 23.2773109,20.4705882 L0.336134454,20.4705882 C0.151260504,20.4705882 2.19149143e-10,20.3193277 2.19149143e-10,20.1344538 C2.19149143e-10,19.9495798 0.151260504,19.7983193 0.336134454,19.7983193 L23.2773109,19.7983193 Z M20.010084,4.02689076 C21.2268908,4.02689076 22.1512605,4.37983193 22.7596639,5.07563025 C23.3310924,5.73109244 23.6235294,6.69915966 23.6235294,7.95294118 L23.6235294,13.8789916 C23.6235294,15.1327731 23.3344538,16.1008403 22.7596639,16.7563025 C22.1512605,17.4554622 21.2268908,17.8084034 20.010084,17.8084034 L3.62352941,17.8084034 C2.40672269,17.8084034 1.48235294,17.4554622 0.87394958,16.7596639 C0.299159664,16.1008403 0.0100840338,15.1327731 0.0100840338,13.8789916 L0.0100840338,7.95294118 C0.0100840338,6.69915966 0.299159664,5.73109244 0.87394958,5.07563025 C1.48235294,4.37983193 2.40672269,4.02689076 3.62352941,4.02689076 L20.010084,4.02689076 Z M20.010084,4.69915966 L3.62352941,4.69915966 C1.61680672,4.69915966 0.682352941,5.73445378 0.682352941,7.95630252 L0.682352941,13.8823529 C0.682352941,16.1042017 1.61680672,17.1394958 3.62352941,17.1394958 L20.010084,17.1394958 C22.0168067,17.1394958 22.9512605,16.1042017 22.9512605,13.8823529 L22.9512605,7.95294118 C22.9512605,5.73109244 22.0168067,4.69915966 20.010084,4.69915966 Z M15.7210084,6.37983193 C16.389916,6.37983193 17.0184874,6.60504202 17.0857143,6.62857143 C17.405042,6.74621849 17.6134454,7.01512605 17.6268908,7.32773109 C17.6403361,7.64033613 17.4554622,7.92605042 17.1462185,8.07058824 L17.1462185,8.07058824 L16.5546218,8.34621849 L16.4672269,8.76638655 L16.8436975,8.96806723 L17.4352941,8.69243697 C17.5529412,8.63529412 17.6806723,8.60504202 17.8084034,8.60504202 C18.0504202,8.60504202 18.2789916,8.71932773 18.4201681,8.91764706 C18.5680672,9.12605042 18.594958,9.39831933 18.5008403,9.66386555 C18.410084,9.9092437 18.2957983,10.1411765 18.1647059,10.3663866 C17.8521008,10.9042017 17.4857143,11.2739496 17.0756303,11.4655462 C16.8134454,11.5865546 16.5042017,11.6504202 16.1512605,11.6504202 C15.5327731,11.6504202 14.9512605,11.4621849 14.810084,11.4117647 L14.810084,11.4117647 L14.7966387,11.4117647 L10.2588235,13.5260504 L10.2487395,13.5361345 C10.1579832,13.7714286 10.0504202,13.9966387 9.92268908,14.2117647 C9.61008403,14.7495798 9.24369748,15.1193277 8.83361345,15.3109244 C8.57142857,15.4319328 8.25882353,15.4957983 7.9092437,15.4957983 C7.24033613,15.4957983 6.61176471,15.2739496 6.54117647,15.2470588 C6.22184874,15.1294118 6.01008403,14.8605042 6,14.5478992 C5.98991597,14.2352941 6.17478992,13.9495798 6.48403361,13.805042 L6.48403361,13.805042 L7.07563025,13.5294118 L7.16302521,13.1092437 L6.78655462,12.907563 L6.19495798,13.1831933 C6.07731092,13.2403361 5.94957983,13.2705882 5.82184874,13.2705882 C5.57983193,13.2739496 5.3512605,13.1563025 5.21008403,12.9579832 C5.06218487,12.7495798 5.03529412,12.4773109 5.12941176,12.2117647 C5.22016807,11.9663866 5.33445378,11.7344538 5.46554622,11.5092437 C5.77815126,10.9714286 6.14453782,10.6016807 6.55462185,10.410084 C6.81680672,10.2890756 7.12941176,10.2252101 7.4789916,10.2252101 C8.09747899,10.2252101 8.6789916,10.4134454 8.82016807,10.4638655 L8.82016807,10.4638655 L8.83361345,10.4638655 L13.3680672,8.34957983 L13.3781513,8.3394958 C13.4689076,8.10420168 13.5764706,7.8789916 13.7042017,7.66386555 C14.0201681,7.12605042 14.3865546,6.75630252 14.7966387,6.56470588 C15.0588235,6.44369748 15.3680672,6.37983193 15.7210084,6.37983193 Z M15.7210084,7.05210084 C15.4957983,7.05210084 15.2705882,7.08571429 15.0789916,7.17310924 C14.4,7.49243697 14.0033613,8.59159664 14.0033613,8.59159664 C13.9394958,8.74621849 13.8252101,8.87058824 13.6806723,8.94789916 L13.6806723,8.94789916 L9.09579832,11.0890756 C9.00840336,11.1226891 8.91764706,11.1394958 8.82352941,11.1394958 C8.75294118,11.1394958 8.68235294,11.1294118 8.61512605,11.1058824 C8.61512605,11.1058824 8.05042017,10.897479 7.4789916,10.897479 C7.25378151,10.897479 7.02857143,10.9277311 6.83697479,11.0184874 C6.15798319,11.3378151 5.76134454,12.4369748 5.76134454,12.4369748 C5.72773109,12.5344538 5.75462185,12.594958 5.82184874,12.594958 C5.85210084,12.594958 5.88235294,12.5848739 5.9092437,12.5714286 L5.9092437,12.5714286 L6.57142857,12.2621849 C6.63865546,12.2319328 6.71260504,12.2184874 6.78655462,12.2184874 C6.87058824,12.2151261 6.95798319,12.2352941 7.03529412,12.2722689 L7.03529412,12.2722689 L7.69411765,12.6252101 C7.82521008,12.702521 7.89243697,12.8504202 7.86890756,13.0016807 L7.86890756,13.0016807 L7.71428571,13.7344538 C7.67394958,13.8890756 7.56638655,14.0201681 7.42521008,14.097479 L7.42521008,14.097479 L6.76302521,14.4067227 C6.63529412,14.4705882 6.63865546,14.5579832 6.77310924,14.6084034 C6.77310924,14.6084034 7.33781513,14.8168067 7.9092437,14.8168067 C8.13445378,14.8168067 8.35966387,14.7865546 8.5512605,14.6957983 C9.2302521,14.3764706 9.62689076,13.2773109 9.62689076,13.2773109 C9.6907563,13.1260504 9.80504202,13.0016807 9.94957983,12.9243697 L9.94957983,12.9243697 L14.5344538,10.7798319 C14.6218487,10.7462185 14.712605,10.7294118 14.8067227,10.7294118 C14.8773109,10.7294118 14.9478992,10.7394958 15.0151261,10.7630252 C15.0151261,10.7630252 15.5798319,10.9714286 16.1512605,10.9714286 C16.3764706,10.9714286 16.6016807,10.9411765 16.7932773,10.8504202 C17.4722689,10.5310924 17.8689076,9.43193277 17.8689076,9.43193277 C17.902521,9.33445378 17.8756303,9.27394958 17.8084034,9.27394958 C17.7781513,9.27394958 17.7478992,9.28403361 17.7210084,9.29747899 L17.7210084,9.29747899 L17.0588235,9.60672269 C16.9915966,9.63697479 16.9176471,9.65042017 16.8436975,9.65042017 C16.7596639,9.65378151 16.6722689,9.63361345 16.594958,9.59663866 L16.594958,9.59663866 L15.9361345,9.24369748 C15.8084034,9.16638655 15.7378151,9.01848739 15.7613445,8.86722689 L15.7613445,8.86722689 L15.9159664,8.13445378 C15.9563025,7.97647059 16.0638655,7.84537815 16.205042,7.76806723 L16.205042,7.76806723 L16.8672269,7.45882353 C16.994958,7.39831933 16.9915966,7.31092437 16.8571429,7.2605042 C16.8571429,7.2605042 16.292437,7.05210084 15.7210084,7.05210084 Z" id="Servicio-tecnico-Internet_1Light"></path>
        </g>
    </g>
</svg>

<svg width="24" height="24" viewBox="0 0 24 24" xmlns="http://www.w3.org/2000/svg"><path d="M23.277 19.798c.185 0 .336.152.336.336a.337.337 0 01-.336.337H.337A.337.337 0 010 20.134c0-.184.151-.336.336-.336h22.941zM20.01 4.027c1.217 0 2.141.353 2.75 1.049.571.655.864 1.623.864 2.877v5.926c0 1.254-.29 2.222-.864 2.877-.609.7-1.533 1.052-2.75 1.052H3.624c-1.217 0-2.142-.353-2.75-1.048C.299 16.1.01 15.133.01 13.879V7.953c0-1.254.29-2.222.864-2.877.608-.696 1.533-1.05 2.75-1.05H20.01zm0 .672H3.624C1.617 4.7.682 5.734.682 7.956v5.926c0 2.222.935 3.257 2.942 3.257H20.01c2.007 0 2.941-1.035 2.941-3.257v-5.93c0-2.22-.934-3.253-2.94-3.253zm-4.289 1.68c.669 0 1.297.226 1.365.25.319.117.527.386.54.699.014.312-.17.598-.48.743l-.591.275-.088.42.377.202.591-.276a.856.856 0 01.373-.087c.242 0 .471.114.612.313.148.208.175.48.08.746-.09.245-.204.477-.335.702-.313.538-.68.908-1.09 1.1a2.19 2.19 0 01-.924.184c-.618 0-1.2-.188-1.34-.238h-.014l-4.538 2.114-.01.01c-.091.235-.199.46-.326.676-.313.538-.68.907-1.09 1.099a2.202 2.202 0 01-.924.185 4.38 4.38 0 01-1.368-.249c-.32-.118-.53-.386-.541-.7-.01-.312.175-.597.484-.742l.592-.276.087-.42-.376-.201-.592.275a.856.856 0 01-.373.088.74.74 0 01-.612-.313c-.148-.208-.175-.48-.08-.746.09-.246.204-.478.336-.703.312-.538.679-.907 1.089-1.099.262-.12.574-.185.924-.185.618 0 1.2.188 1.341.239h.014l4.534-2.114.01-.01c.09-.236.198-.461.326-.676.316-.538.683-.908 1.093-1.1a2.19 2.19 0 01.924-.184zm0 .673c-.225 0-.45.034-.642.121-.679.32-1.076 1.419-1.076 1.419a.71.71 0 01-.322.356l-4.585 2.141a.752.752 0 01-.272.05.63.63 0 01-.209-.033s-.565-.209-1.136-.209c-.225 0-.45.03-.642.121-.679.32-1.076 1.419-1.076 1.419-.033.097-.006.158.06.158a.2.2 0 00.088-.024l.662-.309a.524.524 0 01.216-.044.536.536 0 01.248.054l.66.353a.367.367 0 01.174.377l-.155.732a.589.589 0 01-.289.363l-.662.31c-.128.064-.124.151.01.201 0 0 .565.209 1.136.209.225 0 .45-.03.642-.121.68-.32 1.076-1.419 1.076-1.419a.717.717 0 01.323-.353l4.584-2.144a.752.752 0 01.273-.05c.07 0 .14.01.208.033 0 0 .565.208 1.136.208.225 0 .45-.03.642-.12.68-.32 1.076-1.42 1.076-1.42.034-.097.007-.157-.06-.157a.2.2 0 00-.088.023l-.662.31a.524.524 0 01-.215.043.536.536 0 01-.249-.053l-.659-.353a.373.373 0 01-.175-.377l.155-.733a.586.586 0 01.289-.366l.662-.31c.128-.06.125-.147-.01-.197 0 0-.565-.209-1.136-.209z" fill="#5CB615" fill-rule="nonzero"/></svg>
